!!!COM: Lubelczyk, Jakub
!!!CDT: ~1530–after 1567
!!!ODT: ~1558
!!!LYR:
!!!OTL: Wesel się teyto chwile
!!!PPR: Siebeneicher, Jakób
!!!PDT: 1558
!!!PPP: Kraków
!!!ENC: dr Marcin Konik
!!!END: 2015-03-15
!!!YOO: Polish National Library, SD XVI.O.264
!!!RDF**kern: i=editorial accidental
!!!YEM: Creative Commons CC/BY/NC/SA 4.0
!!!EED: Marcin Konik
!!!ONB: Encoded in vim by Marcin Konik
!!!CharacterEncoding: utf-8
!!!RDF**kern: l=long note in original notation
!!!RDF**kern: i=editorial accidental
!!muse2ps: z14jc180F
!!title: @{CDT}, @{OTL}, ed. @{ENC}
**kern	**kern	**kern	**kern
*part4	*part3	*part2	*part1
*staff4	*staff3	*staff2	*staff1
*oclefF4	*oclefC4	*oclefC3	*oclefC1
*clefF4	*clefG2v8	*clefG2v8	*clefG2
*k[]	*k[]	*k[]	*k[]
*M2/2	*M2/2	*M2/2	*M2/2
=1-	=1-	=1-	=1-
2r	2r	2r	2r
2C	2C	2c	2g
=2	=2	=2	=2
2C	2G	2c	2e
2E	2G	2B	2g
=3	=3	=3	=3
2F	2A	2A	2f
2G	2B	2G	2d
=4	=4	=4	=4
1C	1c	1G	1e
=5	=5	=5	=5
1C	1c	1G	1e
=6	=6	=6	=6
1C	1e	1g	1cc
=7	=7	=7	=7
2GG	2d	2g	2b
[2AA	[2c	[2e	[2a
=8	=8	=8	=8
2AA]	2c]	2e]	2a]
2BB	2B	2d	[2g
=9	=9	=9	=9
2C	1A	2e	2g]
2D	.	2d	2f#i
=10	=10	=10	=10
1GG	1G	1B	1g
=11	=11	=11	=11
2G	2G	2d	2g
2G	2G	2d	2g
=12	=12	=12	=12
2E	2B	2e	2g
2E	2B	2e	2g
=13	=13	=13	=13
1C	1c	1g	1e
=14	=14	=14	=14
1C	1G	1e	1g
=15	=15	=15	=15
1F	1A	[1c	1f
=16	=16	=16	=16
2C	2G	2c]	2e
2D	[2F	2A	[2d
=17	=17	=17	=17
2BB-	2F]	2B-	2d]
2C	2E	2G	[2c
=18	=18	=18	=18
1GG	1D	1G	2c]
.	.	.	2B
=19	=19	=19	=19
[1G	[1C	[1E	[1c
=20	=20	=20	=20
1G]	1C]	1E]	1c]
=21	=21	=21	=21
1C	1c	1e	1g
=22	=22	=22	=22
2G	1d	2d	2b-i
2D	.	[2f	[2a
=23	=23	=23	=23
2F	2c	2f]	2a]
2G	2B-i	2e	[2g
=24	=24	=24	=24
1D	1A	1d	2g]
.	.	.	2f#i
=25	=25	=25	=25
[1GG	[1G	[1d	[1g
=26	=26	=26	=26
1GG]	1G]	1d]	1g]
=27	=27	=27	=27
2G	2G	2d	2g
2G	2G	2d	2g
=28	=28	=28	=28
2E	2B	2e	2g
2E	2B	2e	2g
=29	=29	=29	=29
1C	1c	1g	1e
=30	=30	=30	=30
1C	1G	1e	1g
=31	=31	=31	=31
4FF	1A	1c	1f
4GG	.	.	.
4AA	.	.	.
4BB	.	.	.
=32	=32	=32	=32
2C	2G	2A	2e
2D	[2F	[2B-	[2d
=33	=33	=33	=33
2BB-i	2F]	2B-]	2d]
2C	2E	2G	[2c
=34	=34	=34	=34
1GG	1D	1G	2c]
.	.	.	2B
=35	=35	=35	=35
1C	1C	1G	1c
==	==	==	==
*-	*-	*-	*-
